!!!!SEGMENT: pl-wtm--r-1485_stefani-jozef-klopot-dziewczyny.krn
!!!id: 18xx:2226
!!!COM: Stefani, Józef
!!!OTL: Kłopot dziewczyny
!!!PDT:
!!!SMS-siglum: PL-Wtm
!!!SMS-shelfmark: R 1485
!!!NIFC-rismID: 1001122097
!!!URL-scan: http://repozytorium.nifc.pl/skany/pl-wtm-nut--r1485
!!!ONB-nifc:
!!!SMS-variant:
!!!SMS-altvar:
!!!OMD: Allegro moderato.
**kern	**kern	**dynam	**kern	**text	**text	**text
*part2	*part2	*part2	*part1	*part1	*part1	*part1
*staff3	*staff2	*	*staff1	*staff1	*staff1	*staff1
*	*I"Fortepian	*	*I"Spiew	*	*	*
*>[A,B,B1,B,B1,B,B2,C]	*>[A,B,B1,B,B1,B,B2,C]	*>[A,B,B1,B,B1,B,B2,C]	*>[A,B,B1,B,B1,B,B2,C]	*>[A,B,B1,B,B1,B,B2,C]	*>[A,B,B1,B,B1,B,B2,C]	*>[A,B,B1,B,B1,B,B2,C]
*>A	*>A	*>A	*>A	*>A	*>A	*>A
*clefF4	*clefG2	*	*clefG2	*	*	*
*k[f#]	*k[f#]	*	*k[f#]	*	*	*
*M3/8	*M3/8	*	*M3/8	*	*	*
*all\right	*all\right	*all\right	*	*	*	*
=1	=1	=1	=1	=1	=1	=1
!	!LO:TUP:a	!LO:DY:rj	!	!	!	!
8cL 8A 8D\	(24ccc\LL	p	4.r	.	.	.
.	24ddd\	.	.	.	.	.
.	24ccc\JJ	.	.	.	.	.
!	!LO:TUP:a	!	!	!	!	!
8cJ 8A 8D\	24bb\LL	.	.	.	.	.
.	24aa\	.	.	.	.	.
.	24gg\JJ)	.	.	.	.	.
8c 8A 8D\	8ff#'\	.	.	.	.	.
=2	=2	=2	=2	=2	=2	=2
!	!LO:TUP:a	!	!	!	!	!
8BL 8G 8D\	(24ddd\LL	.	4.r	.	.	.
.	24eee\	.	.	.	.	.
.	24ddd\JJ	.	.	.	.	.
!	!LO:TUP:a	!	!	!	!	!
8BJ 8G 8D\	24ccc\LL	.	.	.	.	.
.	24bb\	.	.	.	.	.
.	24aa\JJ)	.	.	.	.	.
8B 8G 8D\	8gg\	.	.	.	.	.
!!LO:LB:g=original
=3	=3	=3	=3	=3	=3	=3
*tremolo	*Xtuplet	*	*	*	*	*
8BL 8A 8F# 8D#X\	(24bb\LL	.	4.r	.	.	.
.	24ccc\	.	.	.	.	.
.	24bb\JJ	.	.	.	.	.
8B 8A 8F# 8D#\	24aa\LL	.	.	.	.	.
.	24gg#X\	.	.	.	.	.
.	24ggn\JJ)	.	.	.	.	.
8BJ 8A 8F# 8D#\	8ff#'\	.	.	.	.	.
=4	=4	=4	=4	=4	=4	=4
8BL 8G 8E\	(24bb\LL	.	4.r	.	.	.
.	24ccc\	.	.	.	.	.
.	24bb\JJ	.	.	.	.	.
8B 8G 8E\	24aa\LL	.	.	.	.	.
.	24gg\	.	.	.	.	.
.	24ff#\JJ)	.	.	.	.	.
8BJ 8G 8E\	8ee'\	.	.	.	.	.
*Xtremolo	*	*	*	*	*	*
=5	=5	=5	=5	=5	=5	=5
!	!	!LO:DY:rj	!	!	!	!
8c 8G 8E 8C\	8.eeeL 8.ee\	f	4.r	.	.	.
8r	.	.	.	.	.	.
.	32ee\LL	.	.	.	.	.
.	32ff#\JJJ	.	.	.	.	.
16r	16gg\LL	.	.	.	.	.
16A 16F# 16E 16C\	16aaJJ 16ee\	.	.	.	.	.
=6	=6	=6	=6	=6	=6	=6
8BL 8F# 8D#X 8BB\	8bbL 8dd#X\	.	4.r	.	.	.
8A 8AA\	8ccc 8ee 8cc\	.	.	.	.	.
8d#yJ 8D#\	8dddJ 8ff# 8dd#\	.	.	.	.	.
!!LO:LB:g=original
=7	=7	=7	=7	=7	=7	=7
8B 8G\	16ddd'\LL	.	4.r	.	.	.
.	(32bb\L	.	.	.	.	.
.	32gg\JJJ)	.	.	.	.	.
8A#XL 8E 8C#X\	8gggL 8gg\	.	.	.	.	.
8A#J 8G 8C#\	8eeeJ 8ee\	.	.	.	.	.
=8	=8	=8	=8	=8	=8	=8
8BL 8G 8D\	(32eee\LLL	.	4.r;	.	.	.
.	32ddd\	.	.	.	.	.
.	32bb\	.	.	.	.	.
.	32gg\JJJ	.	.	.	.	.
8B 8G 8E 8D\	8dd\L)	.	.	.	.	.
16cJk 16A 16D\	16ff#Jk 16dd 16a\	.	.	.	.	.
!	!LO:TX:b:t=V&colon;S&colon;	!	!	!	!	!
16r;	16r;	.	.	.	.	.
!!LO:PB:g=original
=9	=9	=9	=9	=9	=9	=9
*>B	*>B	*>B	*>B	*>B	*>B	*>B
!	!LO:TX:b:t=[segno]	!LO:DY:rj	!LO:TX:a:t=[segno]	!	!	!
8GL 8GG\	8gL 8d 8B/	p	16.b\	1.)_Przy	2.)_Więc	3.)_Al-
.	.	.	32cc#X\	o-	za-	-bo
8G 8GG\	8g 8d 8B/	.	8dd\	-kien-	-gra-	przyz-
8GJ 8GG\	8gJ 8d 8B/	.	8g/	-ku	-łam,	-nam
=10	=10	=10	=10	=10	=10	=10
8G 8GG\	8g 8e 8c#X 8A#X^>/	.	16.ee\	już	cóż	się
.	.	.	32cc#X\	o	wtem	do
8GL 8GG\	8gL 8d 8B/	.	8dd\	zmro-	złe-	wi-
8GJ 8GG\	8gJ 8d 8B/	.	8b\	-ku,	-go,	-ny,
=11	=11	=11	=11	=11	=11	=11
*tremolo	*tremolo	*	*	*	*	*
8DL 8DD/	8f#L 8d 8c 8A/	.	16.ccn\	Jak	On	O,
.	.	.	32b\	ró-	się	nie
8D 8DD/	8f# 8d 8c 8A/	.	8a/	-życz-	cie-	trze-
8DJ 8DD/	8f#J 8d 8c 8A/	.	8dd\	-ka	-szył	-ba
=12	=12	=12	=12	=12	=12	=12
.	.	.	8qcc/	.	.	.
8GL 8GG\	8gL 8d 8B/	.	16.b/	dziew-	i	nic
.	.	.	32a/	-cze	ra-	nie
8G 8GG\	8g 8d 8B/	.	8b/	pło-	-do-	wspom-
8GJ 8GG\	8gJ 8d 8B/	.	8g/	-nie,	-wał;	-nę;
*Xtremolo	*Xtremolo	*	*	*	*	*
!!LO:LB:g=original
=13	=13	=13	=13	=13	=13	=13
8G 8GG\	8g 8e-X 8c^/	.	16g/	Łza	A-	Smie-
.	.	.	16e-X/	iej	-le	-li
8GL 8GG\	8gL 8d 8B/	.	8d/	błysz-	na-	by
8GJ 8GG\	8gJ 8d 8B/	.	8b/	-czy	-gle	się
=14	=14	=14	=14	=14	=14	=14
8DL 8DD/	8f#L 8d 8c 8A/	.	16a/	w_mo-	nic	z_mej
.	.	.	16cc\	-drem	do-	przy-
8G 8GG/	8g 8d 8B/	.	8b\	o-	-bre-	-czy-
8GJ 8GG/	8gJ 8d 8B/	.	8g/	-ku,	-go	-ny,
=15	=15	=15	=15	=15	=15	=15
8C#X 8CC#X/	8r	.	16a/	Bia-	Przy-	Zem
.	.	.	16g#X/	-ły	-szedł	stwo-
8r	8aL 8e 8A/	.	8a/	rom-	ści-	-rze-
8C# 8CC#/	8gnJ 8e 8A/	.	8gn/	-bek	-snoł	-nie
=16	=16	=16	=16	=16	=16	=16
.	.	.	(8qg/	.	.	.
8D 8DD/	8r	.	16f#/)	drzy	po-	tak
.	.	.	16e/	na	-ca-	nie-
8r	8f#L 8d 8A/	.	8f#/	ło-	-ło-	-skrom-
8D 8DD\	8dJ 8A 8F#</	.	8d/	-nie,	-wał	-ne
!!LO:LB:g=original
=17	=17	=17	=17	=17	=17	=17
*^	*	*	*	*	*	*
4.C#/	8C#X\L	(32aa\LLL	.	4.r	.	.	.
.	.	32gg#X\	.	.	.	.	.
.	.	32aa\	.	.	.	.	.
.	.	32gg#\JJJ	.	.	.	.	.
.	8A 8G 8E\	8aa\L)	.	.	.	.	.
.	8AJ 8G 8E\	8ggn\J	.	.	.	.	.
=18	=18	=18	=18	=18	=18	=18	=18
!	!	!	!LO:DY:rj	!	!	!	!
.	.	(8qgg/	f	.	.	.	.
4.D/	8D\L	16.ff#\LL)	.	4.r	.	.	.
.	.	32ee\JJk	.	.	.	.	.
.	8A 8F#\	(8dd\L	.	.	.	.	.
.	8AJ 8F#\	8ddd\J)	.	.	.	.	.
*v	*v	*	*	*	*	*	*
=19	=19	=19	=19	=19	=19	=19
!	!	!LO:DY:rj	!	!	!	!
8D 8DD/	8r	p	16a/	A	Ach	Wiem
.	.	.	16b/	choć	ten	iuż
8r	8f#L 8d 8c 8A/	.	8cc/	dziew-	sło-	te-
8r	8f#J 8d 8c 8A/	.	8a/	-czę	-wik	-raz
=20	=20	=20	=20	=20	=20	=20
8G 8GG\	8r	.	16b\	pięk-	jak	wiem
.	.	.	16ee\	-nę,	tam	co
8r	8gL 8d 8B/	.	8dd\	ho-	śpie-	zro-
8r	8gJ 8d 8B/	.	8b\	-że	-wa,	-bię
!!LO:LB:g=original
=21	=21	=21	=21	=21	=21	=21
(4.D#X (4.DD#X/	8r	.	16b\	Jed-	Go-	A
.	.	.	16cc\	-nak	-tów	od
.	8aL 8f# 8B/	.	8b\	wzdy-	wszy-	cze-
.	8aJ 8f# 8B/	.	8f#/	-cha	-stko	-góż
=22	=22	=22	=22	=22	=22	=22
.	.	.	(8qa/	.	.	.
8E 8EE/))	8r	.	16g/)	ied-	wy-	to
.	.	.	16f#/	-nak	-po-	Kry-
8r	8gL 8e 8B/	.	8g/	bia-	-wie-	-ni-
8r	8gJ 8e 8B/	.	8b/	-da,	-dzieć;	-ca?
=23	=23	=23	=23	=23	=23	=23
(4.C#X (4.CC#X/	8r	.	16a/	O	Ci-	Nie
.	.	.	16b/	mój	-cho	chcę
.	8aL 8e 8A/	.	8a/	Bo-	ptasz-	nie
.	8gJ 8e 8A/	.	8g/	-że,	-ku	chcę
=24	=24	=24	=24	=24	=24	=24
8D 8DD/))	8r	.	16f#/	o	to	bo
.	.	.	16a/	mój	mnie	bym
8r	8f#L 8d 8A/	.	8ee\	Bo-	gnie-	so-
8r	8f#J 8d 8A/	.	8dd\	-że,	-wa	-bie
!!LO:PB:g=original
=25	=25	=25	=25	=25	=25	=25
8G 8GG\	8g 8e 8B/	.	16cc#X\	Ja-	Idź	Po-
.	.	.	16b\	-ka	do	-ca-
8EL 8AA\	8gL 8c#X 8A/	.	16a/	to	gniazd-	-łu-
.	.	.	16g/	też	-ka	-nek
8EJ 8AA\	8gJ 8c# 8A/	.	16e/	w_świe-	le-	zmy-
.	.	.	16a/	-cie	-pièj	-ła
=26	=26	=26	=26	=26	=26	=26
8D\	8f# 8d 8A/	.	8a/	zdra-	sie-	z_li-
4D 4DD/	4ddd 4ff# 4dd^<\	.	4d/	-da.	-dzieć.	-ca.
.	.	f	.	.	.	.
=27	=27	=27	=27	=27	=27	=27
8G 8GG\	(16ccc#X\LL	.	4.r	.	.	.
.	16bb\JJ)	.	.	.	.	.
.	(>32qqaa/LLL	.	.	.	.	.
.	32qqbb/JJJ	.	.	.	.	.
8gL 8c#X 8A\	16aa\LL)	.	.	.	.	.
.	16gg'\JJ	.	.	.	.	.
.	(>32qqff#/LLL	.	.	.	.	.
.	32qqgg/JJJ	.	.	.	.	.
8gJ 8c# 8A\	16ff#\LL)	.	.	.	.	.
.	16ee'\JJ	.	.	.	.	.
=28	=28	=28	=28	=28	=28	=28
8f# 8d\	8dd\	.	4.r	.	.	.
4d 4D\	4ddd 4ff# 4dd\	.	.	.	.	.
!!LO:LB:g=original
=29||	=29||	=29||	=29||	=29||	=29||	=29||
!	!	!LO:DY:rj	!	!	!	!
(4.F#X (4.FF#X/	8r	fp	16dd\	A	Księ-	I
.	.	.	16ee-X\	tak	-życ	choć
.	8aL 8d 8c/	.	8dd\	pięk-	pa-	ciem-
.	8aJ 8d 8c/	.	8cc\	-nie	-trzy	-no
=30	=30	=30	=30	=30	=30	=30
8G 8GG\))	8r	.	16b-X/	bła-	się	już
.	.	.	16a/	-gał,	i	na
8r	8gL 8d 8B-X/	.	8g/	pro-	śmie-	dwo-
8r	8gJ 8d 8B-/	.	8dd\	-sił,	-ie,	-rze,
=31	=31	=31	=31	=31	=31	=31
!	!	!LO:DY:rj	!	!	!	!
(4.G#X (4.GG#X/	8r	fp	16een\	O-	Ser-	Pię-
.	.	.	16ffn\	-bie-	-ce	-kne
.	8bnL 8e 8d/	.	8ee\	-cy-	bi-	dziew-
.	8bJ 8e 8d/	.	8dd\	-wał	-ie	-cze
=32	=32	=32	=32	=32	=32	=32
8A 8AA\))	8r	.	16cc\	wszy-	twarz	iesz-
.	.	.	16b\	-stkie	się	-cze
8r	8aL 8e 8c/	.	(16.a\LL	świa-	za-	bia-
.	.	.	32ee\JJk)	.	.	.
8r	8aJ 8e 8c/	.	8ee\	-ty,	-rży;	-da;
!!LO:LB:g=original
=33	=33	=33	=33	=33	=33	=33
4.F#X 4.FF#X/	8r	.	16dd\	Pra-	A	O
.	.	.	16ee\	-wie	tam	mój
.	8aL 8d 8c/	.	8dd\	na	wiatr	Bo-
.	8aJ 8d 8c/	.	8cc\	płacz	znów	-że,
=34	=34	=34	=34	=34	=34	=34
8G 8GG/	8r	.	16b/	się	w_po-	o
.	.	.	16a/	za-	-lu	mój
8r	8bL 8g 8d/	.	8b/	-no-	wie-	Bo-
8r	8gJ 8d 8B/	.	8g/	-sił,	-ie,	-że,
=35	=35	=35	=35	=35	=35	=35
!LO:TX:t=1ma et 2da	!	!	!	!	!	!
*>B1	*>B1	*>B1	*>B1	*>B1	*>B1	*>B1
4.E-X 4.EE-X\	8r	.	8.cc#X\	By	Pew-	.
.	8gL 8c#X 8G</	.	.	.	.	.
.	.	.	16g/	mu	-no	.
.	8gJ 8c# 8G</	.	16f#/	za-	o	.
.	.	.	16g/	-grać	mnie	.
=36	=36	=36	=36	=36	=36	=36
8D 8DD\	8r	.	16f#/	na-	lu-	.
.	.	.	16a/	-sze	-dziom	.
8rFF	8f#L 8d 8A</	.	8ee\	kwia-	gwa-	.
8rFF	8f#J 8d 8A</	.	8dd\	-ty!	-rzy.	.
=37	=37	=37	=37	=37	=37	=37
*^	*	*	*	*	*	*
8E-X\L	4.E-/	8.ccc#X\L	f	4.r	.	.	.
8c#X 8A 8G\	.	.	.	.	.	.	.
.	.	(48gg\LL	.	.	.	.	.
.	.	48aa\	.	.	.	.	.
.	.	48gg\JJJ	.	.	.	.	.
8c#J 8A 8G\	.	16ff#\LL)	.	.	.	.	.
.	.	16gg|\JJ	.	.	.	.	.
*v	*v	*	*	*	*	*	*
=38	=38	=38	=38	=38	=38	=38
8D\	16ff#\LL	.	4.r	.	.	.
.	(64aa\LL	.	.	.	.	.
.	64gg\	.	.	.	.	.
.	64ff#\	.	.	.	.	.
.	64ee\JJJJ)	.	.	.	.	.
!	!LO:TX:a:t=[segno]:problem:na kresce taktowej	!	!LO:TX:a:t=[segno]:problem:na kresce taktowej	!	!	!
4d 4A 4F# 4D\	4dd\	.	.	.	.	.
!!LO:LB:g=original
=39||	=39||	=39||	=39||	=39||	=39||	=39||
!LO:TX:t=3tia	!	!	!	!	!	!
*>B2	*>B2	*>B2	*>B2	*>B2	*>B2	*>B2
8C 8CC/	8e 8c^/	.	16e/	Ja-	.	.
.	.	.	16ee\	-ka	.	.
!	!	!LO:DY:rj	!	!	!	!
8DL 8DD/	8dL 8B/	p	8d/	też	.	.
8DJ 8DD/	8gJ 8d 8B/	.	8g/	to	.	.
=40	=40	=40	=40	=40	=40	=40
8DL 8DD/	8f#L 8d 8c/	.	16b/	w_świe-	.	.
.	.	.	16a/	-cie	.	.
8D 8DD/	8f# 8d 8c/	.	8a/	zdra-	.	.
8GJ 8GG/	8gJ 8d 8B/	.	8g/	-da.	.	.
.	.	f	.	.	.	.
=41	=41	=41	=41	=41	=41	=41
*>C	*>C	*>C	*>C	*>C	*>C	*>C
8AL 8E 8C\	(32e/LLL	.	4.r	.	.	.
.	32a/	.	.	.	.	.
.	32cc/	.	.	.	.	.
.	32ee/JJJ)	.	.	.	.	.
8B 8G 8D\	16dd'\LL	.	.	.	.	.
.	(32b\L	.	.	.	.	.
.	32g\JJJ)	.	.	.	.	.
8BJ 8G 8D\	16gg'\LL	.	.	.	.	.
.	(32dd\L	.	.	.	.	.
.	32b\JJJ)	.	.	.	.	.
=42	=42	=42	=42	=42	=42	=42
*	*tuplet	*	*	*	*	*
!	!LO:TUP:a:problem:klamra łukowa	!	!	!	!	!
8c 8A 8D\	48cc#X\LLL	.	4.r	.	.	.
.	48dd\	.	.	.	.	.
.	48dd#X\	.	.	.	.	.
.	48ee\	.	.	.	.	.
.	48ffn\	.	.	.	.	.
.	48ff#X\JJJ	.	.	.	.	.
!	!LO:TX:t=P:problem:mixed beam	!	!	!	!	!
8BL 8G\	8gg\L	.	.	.	.	.
8GJ 8C#X\	8a#XJ 8e/	pp	.	.	.	.
=43||	=43||	=43||	=43||	=43||	=43||	=43||
*^	*	*	*	*	*	*
!	!	!	!	!LO:TX:b:Bi:t=Aadagio.	!	!	!
16G/LL	8D\	(>16bLL 16d/	.	4.r	.	.	.
16B/JJ	.	16g/JJ)	.	.	.	.	.
8ryy	8AL 8D\	8eL 8c#X'>/	.	.	.	.	.
8ryy	8AJ 8D\	8f#J 8cn'>/	.	.	.	.	.
*v	*v	*	*	*	*	*	*
=44	=44	=44	=44	=44	=44	=44
8G\	8g 8B/	.	4.r	.	.	.
8r	8r	.	.	.	.	.
8r	8r	.	.	.	.	.
==	==	==	==	==	==	==
*-	*-	*-	*-	*-	*-	*-
!!!system-decoration: <s1>{(s2,s3)}
!!!RDF**kern: > = above
!!!RDF**kern: < = below
!!!RDF**kern: | = vertical stroke
!!!ENC: Berenika Jozajtis
!!!END: 2021-05-24
!!!ENC: Andrzej Kubiczek
!!!END: 2021-06-06
